dist/img/sprites/basil_viber-solid.svg

<svg width="25" height="25" viewBox="0 0 25 25" fill="none" xmlns="http://www.w3.org/2000/svg">
<g clip-path="url(#clip0_1194_60781)">
<path fill-rule="evenodd" clip-rule="evenodd" d="M17.8102 1.45428C14.1219 0.629823 10.2971 0.629823 6.60879 1.45428L6.21138 1.54221C5.17391 1.77416 4.22105 2.28918 3.45865 3.03006C2.69625 3.77094 2.15416 4.70866 1.8926 5.73907C0.957676 9.42308 0.957676 13.2823 1.8926 16.9663C2.14203 17.949 2.64687 18.8482 3.35591 19.5729C4.06495 20.2976 4.953 20.822 5.93003 21.0928L6.47515 24.3471C6.49255 24.4505 6.53734 24.5472 6.60485 24.6274C6.67236 24.7075 6.76012 24.7681 6.85899 24.8028C6.95787 24.8376 7.06424 24.8451 7.16704 24.8248C7.26984 24.8044 7.3653 24.7569 7.44348 24.6871L10.6451 21.8231C13.0484 21.9698 15.4604 21.7776 17.8102 21.2522L18.2088 21.1643C19.2463 20.9323 20.1991 20.4173 20.9615 19.6764C21.7239 18.9356 22.266 17.9978 22.5276 16.9674C23.4624 13.2834 23.4624 9.42426 22.5276 5.74024C22.2659 4.70968 21.7237 3.77186 20.961 3.03097C20.1984 2.29007 19.2453 1.77514 18.2076 1.54338L17.8102 1.45428ZM7.59822 5.64411C7.38034 5.6124 7.15818 5.65625 6.96869 5.76838H6.95228C6.51266 6.02628 6.11642 6.35101 5.7788 6.73319C5.49744 7.05792 5.34504 7.38616 5.30519 7.70269C5.28174 7.89025 5.29815 8.08017 5.35325 8.25953L5.37435 8.27125C5.69088 9.2009 6.10353 10.0954 6.60762 10.9371C7.25761 12.1193 8.05748 13.2128 8.98741 14.1902L9.01554 14.2301L9.06009 14.2629L9.08705 14.2946L9.11988 14.3227C10.1008 15.2554 11.1968 16.0591 12.3812 16.7142C13.7353 17.4516 14.557 17.7998 15.0506 17.9451V17.9522C15.1948 17.9967 15.3261 18.0167 15.4585 18.0167C15.8789 17.9856 16.2767 17.8147 16.5887 17.5313C16.9697 17.1937 17.292 16.7963 17.5429 16.3543V16.3461C17.7785 15.9006 17.6988 15.481 17.3589 15.1961C16.676 14.5994 15.9376 14.0695 15.1537 13.6135C14.6286 13.3286 14.0952 13.5009 13.8794 13.7893L13.4187 14.3708C13.1819 14.6592 12.7529 14.6193 12.7529 14.6193L12.7411 14.6263C9.53956 13.8092 8.68495 10.5678 8.68495 10.5678C8.68495 10.5678 8.64509 10.127 8.94169 9.90193L9.51846 9.4377C9.79513 9.21262 9.98739 8.68039 9.69079 8.1552C9.23782 7.37064 8.70891 6.63246 8.11169 5.95126C7.98143 5.79094 7.79876 5.68175 7.59588 5.64294L7.59822 5.64411ZM13.0073 4.235C12.8518 4.235 12.7027 4.29675 12.5928 4.40668C12.4829 4.5166 12.4211 4.66569 12.4211 4.82115C12.4211 4.97661 12.4829 5.1257 12.5928 5.23563C12.7027 5.34555 12.8518 5.40731 13.0073 5.40731C14.4902 5.40731 15.7211 5.89147 16.6953 6.81994C17.1959 7.32755 17.5863 7.92894 17.8419 8.58778C18.0986 9.24779 18.2158 9.95234 18.1853 10.6581C18.1821 10.735 18.1941 10.8119 18.2205 10.8843C18.247 10.9566 18.2875 11.023 18.3396 11.0798C18.4449 11.1943 18.5914 11.2623 18.7469 11.2688C18.9023 11.2754 19.054 11.2199 19.1686 11.1146C19.2831 11.0093 19.3511 10.8628 19.3576 10.7073C19.394 9.8392 19.2499 8.97298 18.9344 8.1634C18.6176 7.34998 18.1372 6.61023 17.523 5.98994L17.5113 5.97822C16.3026 4.8235 14.7727 4.235 13.0073 4.235ZM12.9674 6.16227C12.8119 6.16227 12.6628 6.22403 12.5529 6.33395C12.443 6.44388 12.3812 6.59297 12.3812 6.74843C12.3812 6.90388 12.443 7.05297 12.5529 7.1629C12.6628 7.27283 12.8119 7.33458 12.9674 7.33458H12.9873C14.0565 7.41078 14.8349 7.76716 15.38 8.35214C15.9392 8.95471 16.2288 9.70381 16.2065 10.6299C16.2029 10.7854 16.2612 10.9359 16.3686 11.0484C16.476 11.1608 16.6237 11.226 16.7792 11.2296C16.9346 11.2331 17.0851 11.1748 17.1976 11.0674C17.31 10.96 17.3752 10.8124 17.3788 10.6569C17.4069 9.44122 17.0154 8.392 16.2393 7.55497V7.55263C15.4457 6.70153 14.3566 6.25137 13.0459 6.16344L13.026 6.1611L12.9674 6.16227ZM12.9451 8.12589C12.8667 8.11897 12.7876 8.12792 12.7127 8.15222C12.6378 8.17652 12.5686 8.21566 12.5091 8.26731C12.4497 8.31896 12.4013 8.38206 12.3668 8.45284C12.3322 8.52362 12.3123 8.60063 12.3082 8.67927C12.3041 8.75792 12.3159 8.83658 12.3429 8.91056C12.3699 8.98455 12.4115 9.05234 12.4652 9.10988C12.519 9.16743 12.5838 9.21356 12.6558 9.24551C12.7277 9.27746 12.8054 9.29458 12.8842 9.29585C13.3742 9.32164 13.6872 9.46935 13.8841 9.66747C14.0823 9.86677 14.23 10.1868 14.2569 10.6874C14.2584 10.766 14.2757 10.8436 14.3078 10.9154C14.3398 10.9873 14.386 11.0519 14.4436 11.1055C14.5012 11.1591 14.569 11.2006 14.643 11.2274C14.7169 11.2543 14.7955 11.266 14.8741 11.2618C14.9526 11.2576 15.0296 11.2377 15.1002 11.2032C15.1709 11.1686 15.234 11.1202 15.2855 11.0608C15.3371 11.0014 15.3762 10.9322 15.4005 10.8574C15.4248 10.7826 15.4338 10.7036 15.4269 10.6252C15.3894 9.92186 15.169 9.30054 14.7176 8.84334C14.264 8.38614 13.6462 8.1634 12.9451 8.12589Z" fill="#754A91"/>
</g>
<defs>
<clipPath id="clip0_1194_60781">
<rect width="24" height="24" fill="white" transform="translate(0.310547 0.5)"/>
</clipPath>
</defs>
</svg>

<svg width="25" height="25" viewBox="0 0 25 25" fill="none" xmlns="http://www.w3.org/2000/svg"><g clip-path="url(#clip0_1194_60781)"><path fill-rule="evenodd" clip-rule="evenodd" d="M17.81 1.454a25.674 25.674 0 00-11.201 0l-.398.088A5.75 5.75 0 001.893 5.74a22.821 22.821 0 000 11.227 5.75 5.75 0 004.037 4.127l.545 3.254a.586.586 0 00.968.34l3.202-2.864a25.67 25.67 0 007.165-.57l.399-.089a5.75 5.75 0 004.319-4.197 22.824 22.824 0 000-11.227 5.75 5.75 0 00-4.32-4.197l-.398-.089zM7.598 5.644a.964.964 0 00-.63.124h-.016c-.44.258-.836.583-1.173.965-.282.325-.434.653-.474.97-.023.187-.007.377.048.557l.021.011c.317.93.73 1.824 1.234 2.666a15.678 15.678 0 002.38 3.253l.028.04.044.033.027.032.033.028c.98.932 2.077 1.736 3.261 2.391 1.354.738 2.176 1.086 2.67 1.231v.007c.144.045.275.065.408.065.42-.031.818-.202 1.13-.486a4.62 4.62 0 00.954-1.177v-.008c.236-.445.156-.865-.184-1.15a14.212 14.212 0 00-2.205-1.582c-.525-.285-1.059-.113-1.275.175l-.46.582c-.237.288-.666.248-.666.248l-.012.007c-3.201-.817-4.056-4.058-4.056-4.058s-.04-.441.257-.666l.576-.464c.277-.225.47-.758.173-1.283a13.841 13.841 0 00-1.58-2.204.877.877 0 00-.515-.308l.002.001zm5.41-1.409a.586.586 0 100 1.172c1.482 0 2.713.484 3.687 1.413.5.508.891 1.109 1.147 1.768.257.66.374 1.364.343 2.07a.59.59 0 00.562.61.587.587 0 00.61-.56 6.281 6.281 0 00-.423-2.545 6.38 6.38 0 00-1.411-2.173l-.012-.012c-1.208-1.154-2.738-1.743-4.504-1.743zm-.04 1.927a.586.586 0 100 1.173h.02c1.069.076 1.847.432 2.392 1.017.56.603.849 1.352.826 2.278a.586.586 0 101.173.027c.028-1.216-.364-2.265-1.14-3.102v-.002c-.793-.851-1.882-1.302-3.193-1.39l-.02-.002-.059.001zm-.023 1.964a.586.586 0 10-.06 1.17c.49.026.802.173 1 .371.197.2.345.52.372 1.02a.586.586 0 101.17-.062c-.038-.703-.258-1.324-.71-1.782-.453-.457-1.07-.68-1.772-.717z" fill="#754A91"/></g><defs><clipPath id="clip0_1194_60781"><path fill="#fff" transform="translate(.31 .5)" d="M0 0h24v24H0z"/></clipPath></defs></svg>
